fs/call_missed_16_filled.svg

<svg viewBox="0 0 16 16" fill="none" xmlns="http://www.w3.org/2000/svg" height="1em" width="1em">
  <path d="M9.45382 3.91805L9.75658 5.43185C9.87722 6.03504 10.3539 6.50344 10.9591 6.61348L11.6324 6.73591C12.6833 6.92698 13.6988 6.25862 13.939 5.21789L14.0095 4.91234C14.2679 3.79252 13.8583 2.53153 12.7114 2.00565C11.6427 1.51566 10.0271 0.993445 8.00342 1.00006C5.99146 1.00664 4.38329 1.52248 3.31545 2.0063C2.16047 2.5296 1.74309 3.7965 2.00318 4.92359L2.0711 5.2179C2.31127 6.25862 3.3268 6.92698 4.37765 6.73592L5.0511 6.61348C5.65632 6.50344 6.13301 6.03504 6.25365 5.43184L6.55641 3.91804C6.63491 3.90222 6.72561 3.88491 6.82514 3.86761C7.17222 3.80724 7.60892 3.75 8.00505 3.75C8.40119 3.75 8.83792 3.80724 9.18504 3.86761C9.28458 3.88492 9.3753 3.90223 9.45382 3.91805ZM7.50244 9C7.77858 9 8.00244 9.22386 8.00244 9.5V11H8.99491C9.27105 11 9.49491 11.2239 9.49491 11.5C9.49491 11.7761 9.27105 12 8.99491 12H7.50244C7.2263 12 7.00244 11.7761 7.00244 11.5V9.5C7.00244 9.22386 7.2263 9 7.50244 9ZM8 7C5.79086 7 4 8.79086 4 11C4 13.2091 5.79086 15 8 15C10.2091 15 12 13.2091 12 11C12 8.79086 10.2091 7 8 7ZM5 11C5 9.34315 6.34315 8 8 8C9.65685 8 11 9.34315 11 11C11 12.6569 9.65685 14 8 14C6.34315 14 5 12.6569 5 11Z" fill="#212121"/>
</svg>

<svg viewBox="0 0 16 16" fill="none" xmlns="http://www.w3.org/2000/svg" height="1em" width="1em">
  <path d="m9.454 3.918.303 1.514a1.5 1.5 0 0 0 1.202 1.181l.673.123a2 2 0 0 0 2.307-1.518l.07-.306c.259-1.12-.15-2.38-1.298-2.906A11.22 11.22 0 0 0 8.003 1a11.47 11.47 0 0 0-4.688 1.006c-1.155.524-1.572 1.79-1.312 2.918l.068.294a2 2 0 0 0 2.307 1.518l.673-.123a1.5 1.5 0 0 0 1.203-1.181l.302-1.514a8.82 8.82 0 0 1 .27-.05c.346-.06.783-.118 1.18-.118.395 0 .832.057 1.179.118.1.017.19.034.269.05ZM7.502 9a.5.5 0 0 1 .5.5V11h.993a.5.5 0 0 1 0 1H7.502a.5.5 0 0 1-.5-.5v-2a.5.5 0 0 1 .5-.5ZM8 7a4 4 0 1 0 0 8 4 4 0 0 0 0-8Zm-3 4a3 3 0 1 1 6 0 3 3 0 0 1-6 0Z" fill="#212121"/>
</svg>
